msu1/_inc/system.svg

<svg xmlns="http://www.w3.org/2000/svg"><g fill="#fff"><path d="m140.625 0-140.625 140.625h37.5l93.75-93.75v93.75h18.75l93.75-93.75v93.75h28.125v-140.625h-18.75l-93.75 93.75v-93.75zm182.813 0c-23.297 0-42.188 18.891-42.188 42.188 0 23.296 18.891 42.187 42.188 42.187h37.5c7.762 0 14.062 6.3 14.062 14.063 0 7.762-6.3 14.062-14.062 14.062h-79.688v28.125h79.688c23.296 0 42.187-18.891 42.187-42.187 0-23.297-18.891-42.188-42.187-42.188h-37.5c-7.763 0-14.063-6.3-14.063-14.062 0-7.763 6.3-14.063 14.063-14.063h79.687v-28.125zm89.062 0v98.438c0 23.296 18.891 42.187 42.188 42.187h37.5c23.296 0 42.187-18.891 42.187-42.187v-98.438h-28.125v98.438c0 7.762-6.3 14.062-14.062 14.062h-37.5c-7.763 0-14.063-6.3-14.063-14.062v-98.438zm168.75 0-37.5 37.5v18.75h28.125v84.375h28.125v-140.625z" fill-rule="evenodd"/><path d="m0 150v18.75h600v-18.75z"/><path d="m38.897 177.544h-11.531l-6.91 29.456-7.04-29.456h-11.672v37.097h7.434v-31.463l7.106 31.463h7.885l7.293-31.463v31.463h7.435z"/><path d="m74.85 177.544h-28.219v37.097h29.128v-6.563h-21.309v-9.609h18.769v-6.563h-18.769v-7.8h20.4z"/><path d="m82.266 214.641h16.622c4.237 0 7.95-1.397 10.49-3.872 3.525-3.563 5.475-9.047 5.475-15.45 0-11.26-5.728-17.775-15.637-17.775h-16.95zm7.828-30.741h7.687c2.607 0 4.566.675 5.935 1.959 1.95 1.913 2.99 5.279 2.99 9.666 0 8.062-3.253 12.759-8.793 12.759h-7.819z"/><path d="m128.203 177.544h-8.015v37.097h8.015z"/><path d="m143.878 207h14.147l2.475 7.641h8.738l-13.557-37.097h-9.262l-13.688 37.097h8.475zm7.106-21.244 4.829 14.888h-9.779z"/><path d="m217.416 177.544h-28.219v37.097h29.137v-6.563h-21.318v-9.609h18.778v-6.563h-18.778v-7.8h20.4z"/><path d="m248.306 203.587-15.384-26.043h-8.41v37.097h7.435v-26.607l15.834 26.607h7.95v-37.097h-7.425z"/><path d="m286.163 197.953v16.688h8.015v-37.097h-8.015v14.053h-14.991v-14.053h-8.025v37.097h8.025v-16.688z"/><path d="m310.125 207h14.147l2.475 7.641h8.737l-13.556-37.097h-9.253l-13.688 37.097h8.466zm7.106-21.244 4.828 14.888h-9.778z"/><path d="m364.012 203.587-15.374-26.043h-8.41v37.097h7.425v-26.607l15.844 26.607h7.95v-37.097h-7.435z"/><path d="m411.647 189.684c-.394-2.943-.975-4.49-2.409-6.562-2.935-4.181-7.95-6.563-14.016-6.563-10.95 0-17.794 7.547-17.794 19.641 0 12.038 6.713 19.425 17.597 19.425 5.081 0 9.384-1.65 12.319-4.809 2.222-2.372 3.262-4.491 4.303-8.888h-8.016c-.59 2.072-.975 3-1.828 4.088-1.565 1.912-3.844 2.897-6.647 2.897-5.99 0-9.581-4.763-9.581-12.666 0-8.166 3.647-12.966 9.844-12.966 2.672 0 4.95.928 6.319 2.475.853 1.088 1.303 1.913 1.893 3.928z"/><path d="m445.913 177.544h-28.219v37.097h29.137v-6.563h-21.318v-9.609h18.778v-6.563h-18.778v-7.8h20.4z"/><path d="m490.163 177.544h-11.541l-6.909 29.456-7.032-29.456h-11.672v37.097h7.435v-31.463l7.106 31.463h7.884l7.294-31.463v31.463h7.435z"/><path d="m526.116 177.544h-28.228v37.097h29.137v-6.563h-21.309v-9.609h18.768v-6.563h-18.768v-7.8h20.4z"/><path d="m556.997 203.587-15.385-26.043h-8.399v37.097h7.425v-26.607l15.834 26.607h7.959v-37.097h-7.434z"/><path d="m588.403 184.106h11.597v-6.562h-31.219v6.562h11.597v30.535h8.025z"/></g></svg>

<?xml version="1.0" encoding="utf-8"?>
<svg xmlns="http://www.w3.org/2000/svg">
  <path style="fill-opacity: 1; fill-rule: evenodd; stroke: rgb(0, 0, 0); stroke-width: 0; stroke-miterlimit: 4; stroke-opacity: 1; stroke-dasharray: none; fill: rgb(255, 255, 255);" d="M 140.625 0 L 0 140.625 L 37.5 140.625 L 131.25 46.875 L 131.25 140.625 L 150 140.625 L 243.75 46.875 L 243.75 140.625 L 271.875 140.625 L 271.875 0 L 253.125 0 L 159.375 93.75 L 159.375 0 L 140.625 0 Z M 323.438 0 C 300.141 0 281.25 18.891 281.25 42.188 C 281.25 65.484 300.141 84.375 323.438 84.375 L 360.938 84.375 C 368.7 84.375 375 90.675 375 98.438 C 375 106.2 368.7 112.5 360.938 112.5 L 281.25 112.5 L 281.25 140.625 L 360.938 140.625 C 384.234 140.625 403.125 121.734 403.125 98.438 C 403.125 75.141 384.234 56.25 360.938 56.25 L 323.438 56.25 C 315.675 56.25 309.375 49.95 309.375 42.188 C 309.375 34.425 315.675 28.125 323.438 28.125 L 403.125 28.125 L 403.125 0 L 323.438 0 Z M 412.5 0 L 412.5 98.438 C 412.5 121.734 431.391 140.625 454.688 140.625 L 492.188 140.625 C 515.484 140.625 534.375 121.734 534.375 98.438 L 534.375 0 L 506.25 0 L 506.25 98.438 C 506.25 106.2 499.95 112.5 492.188 112.5 L 454.688 112.5 C 446.925 112.5 440.625 106.2 440.625 98.438 L 440.625 0 L 412.5 0 Z M 581.25 0 L 543.75 37.5 L 543.75 56.25 L 571.875 56.25 L 571.875 140.625 L 600 140.625 L 600 0 L 581.25 0 Z" id="path3758"/>
  <path style="fill-opacity: 1; stroke: rgb(0, 0, 0); stroke-width: 0; stroke-linecap: butt; stroke-linejoin: miter; stroke-miterlimit: 4; stroke-opacity: 1; stroke-dasharray: none; fill: rgb(255, 255, 255);" d="M 0 150 L 0 168.75 L 600 168.75 L 600 150 Z" id="path3798"/>
  <path d="M 38.897 177.544 L 27.366 177.544 L 20.456 207 L 13.416 177.544 L 1.744 177.544 L 1.744 214.641 L 9.178 214.641 L 9.178 183.178 L 16.284 214.641 L 24.169 214.641 L 31.462 183.178 L 31.462 214.641 L 38.897 214.641 L 38.897 177.544" id="path3806" style="fill: rgb(255, 255, 255);"/>
  <path d="M 74.85 177.544 L 46.631 177.544 L 46.631 214.641 L 75.759 214.641 L 75.759 208.078 L 54.45 208.078 L 54.45 198.469 L 73.219 198.469 L 73.219 191.906 L 54.45 191.906 L 54.45 184.106 L 74.85 184.106 L 74.85 177.544" id="path3808" style="fill: rgb(255, 255, 255);"/>
  <path d="M 82.266 214.641 L 98.888 214.641 C 103.125 214.641 106.838 213.244 109.378 210.769 C 112.903 207.206 114.853 201.722 114.853 195.319 C 114.853 184.059 109.125 177.544 99.216 177.544 L 82.266 177.544 L 82.266 214.641 M 90.094 183.9 L 97.781 183.9 C 100.388 183.9 102.347 184.575 103.716 185.859 C 105.666 187.772 106.706 191.138 106.706 195.525 C 106.706 203.587 103.453 208.284 97.913 208.284 L 90.094 208.284 L 90.094 183.9" id="path3810" style="fill: rgb(255, 255, 255);"/>
  <path d="M 128.203 177.544 L 120.188 177.544 L 120.188 214.641 L 128.203 214.641 L 128.203 177.544" id="path3812" style="fill: rgb(255, 255, 255);"/>
  <path d="M 143.878 207 L 158.025 207 L 160.5 214.641 L 169.238 214.641 L 155.681 177.544 L 146.419 177.544 L 132.731 214.641 L 141.206 214.641 L 143.878 207 M 150.984 185.756 L 155.813 200.644 L 146.034 200.644 L 150.984 185.756" id="path3814" style="fill: rgb(255, 255, 255);"/>
  <path d="M 217.416 177.544 L 189.197 177.544 L 189.197 214.641 L 218.334 214.641 L 218.334 208.078 L 197.016 208.078 L 197.016 198.469 L 215.794 198.469 L 215.794 191.906 L 197.016 191.906 L 197.016 184.106 L 217.416 184.106 L 217.416 177.544" id="path3816" style="fill: rgb(255, 255, 255);"/>
  <path d="M 248.306 203.587 L 232.922 177.544 L 224.512 177.544 L 224.512 214.641 L 231.947 214.641 L 231.947 188.034 L 247.781 214.641 L 255.731 214.641 L 255.731 177.544 L 248.306 177.544 L 248.306 203.587" id="path3818" style="fill: rgb(255, 255, 255);"/>
  <path d="M 286.163 197.953 L 286.163 214.641 L 294.178 214.641 L 294.178 177.544 L 286.163 177.544 L 286.163 191.597 L 271.172 191.597 L 271.172 177.544 L 263.147 177.544 L 263.147 214.641 L 271.172 214.641 L 271.172 197.953 L 286.163 197.953" id="path3820" style="fill: rgb(255, 255, 255);"/>
  <path d="M 310.125 207 L 324.272 207 L 326.747 214.641 L 335.484 214.641 L 321.928 177.544 L 312.675 177.544 L 298.987 214.641 L 307.453 214.641 L 310.125 207 M 317.231 185.756 L 322.059 200.644 L 312.281 200.644 L 317.231 185.756" id="path3822" style="fill: rgb(255, 255, 255);"/>
  <path d="M 364.012 203.587 L 348.638 177.544 L 340.228 177.544 L 340.228 214.641 L 347.653 214.641 L 347.653 188.034 L 363.497 214.641 L 371.447 214.641 L 371.447 177.544 L 364.012 177.544 L 364.012 203.587" id="path3824" style="fill: rgb(255, 255, 255);"/>
  <path d="M 411.647 189.684 C 411.253 186.741 410.672 185.194 409.238 183.122 C 406.303 178.941 401.288 176.559 395.222 176.559 C 384.272 176.559 377.428 184.106 377.428 196.2 C 377.428 208.238 384.141 215.625 395.025 215.625 C 400.106 215.625 404.409 213.975 407.344 210.816 C 409.566 208.444 410.606 206.325 411.647 201.928 L 403.631 201.928 C 403.041 204 402.656 204.928 401.803 206.016 C 400.238 207.928 397.959 208.913 395.156 208.913 C 389.166 208.913 385.575 204.15 385.575 196.247 C 385.575 188.081 389.222 183.281 395.419 183.281 C 398.091 183.281 400.369 184.209 401.738 185.756 C 402.591 186.844 403.041 187.669 403.631 189.684 L 411.647 189.684" id="path3826" style="fill: rgb(255, 255, 255);"/>
  <path d="M 445.913 177.544 L 417.694 177.544 L 417.694 214.641 L 446.831 214.641 L 446.831 208.078 L 425.513 208.078 L 425.513 198.469 L 444.291 198.469 L 444.291 191.906 L 425.513 191.906 L 425.513 184.106 L 445.913 184.106 L 445.913 177.544" id="path3828" style="fill: rgb(255, 255, 255);"/>
  <path d="M 490.163 177.544 L 478.622 177.544 L 471.713 207 L 464.681 177.544 L 453.009 177.544 L 453.009 214.641 L 460.444 214.641 L 460.444 183.178 L 467.55 214.641 L 475.434 214.641 L 482.728 183.178 L 482.728 214.641 L 490.163 214.641 L 490.163 177.544" id="path3830" style="fill: rgb(255, 255, 255);"/>
  <path d="M 526.116 177.544 L 497.888 177.544 L 497.888 214.641 L 527.025 214.641 L 527.025 208.078 L 505.716 208.078 L 505.716 198.469 L 524.484 198.469 L 524.484 191.906 L 505.716 191.906 L 505.716 184.106 L 526.116 184.106 L 526.116 177.544" id="path3832" style="fill: rgb(255, 255, 255);"/>
  <path d="M 556.997 203.587 L 541.612 177.544 L 533.213 177.544 L 533.213 214.641 L 540.638 214.641 L 540.638 188.034 L 556.472 214.641 L 564.431 214.641 L 564.431 177.544 L 556.997 177.544 L 556.997 203.587" id="path3834" style="fill: rgb(255, 255, 255);"/>
  <path d="M 588.403 184.106 L 600 184.106 L 600 177.544 L 568.781 177.544 L 568.781 184.106 L 580.378 184.106 L 580.378 214.641 L 588.403 214.641 L 588.403 184.106" id="path3836" style="fill: rgb(255, 255, 255);"/>
</svg>
